Intensive/img/melodyLogo.svg

<svg width="121" height="33" viewBox="0 0 121 33" fill="none" xmlns="http://www.w3.org/2000/svg">
<path d="M15.17 5.904V28.987H18.204V0.286999H13.735L9.184 23.206L4.469 0.286999H0V28.987H2.788V6.109L7.544 28.946H10.619L15.17 5.904Z" fill="white"/>
<path d="M24.6999 12.997V3.198H33.3099V0.286999H21.5019V28.987H33.3099V26.076H24.6999V15.867H31.7109V12.997H24.6999Z" fill="white"/>
<path d="M47.8794 3.198V28.987H51.0774V0.286999H39.3924L38.6133 22.017C38.5314 24.764 38.0804 26.117 35.4154 26.117V29.028H35.9484C40.3354 28.987 41.5654 26.404 41.7294 21.853L42.3854 3.198H47.8794Z" fill="white"/>
<path d="M54.2481 22.058C54.2481 26.404 56.4211 29.274 60.8081 29.274C65.2361 29.274 67.4091 26.404 67.4091 22.058V7.216C67.4091 2.829 65.2361 0 60.8081 0C56.4211 0 54.2481 2.829 54.2481 7.216V22.058ZM57.4051 7.052C57.4051 4.469 58.5121 2.911 60.8081 2.911C63.1451 2.911 64.2111 4.469 64.2111 7.052V22.222C64.2111 24.846 63.1451 26.363 60.8081 26.363C58.5121 26.363 57.4051 24.846 57.4051 22.222V7.052Z" fill="white"/>
<path d="M87.6907 32.923V26.158H85.5177V0.286999H73.9967L72.8897 21.976C72.8077 23.739 72.6027 25.051 71.6187 26.158H69.7737V32.923H72.8487V28.987H84.5747V32.923H87.6907ZM76.9487 3.198H82.2787V26.158H74.6937C75.5957 25.215 75.8827 23.985 76.0057 21.935L76.9487 3.198Z" fill="white"/>
<path d="M101.149 6.15V28.987H104.019V0.286999H100.452L95.8602 13.776L93.3182 21.689V0.286999H90.4892V28.987H93.8102L98.0332 15.744L101.149 6.15Z" fill="white"/>
<path d="M116.942 16.728V28.987H120.14V0.286999H113.744C109.234 0.286999 107.348 2.583 107.348 6.847V9.184C107.348 12.341 108.455 14.309 110.874 15.088C108.291 15.867 107.307 17.999 107.307 21.074V25.543C107.307 26.814 107.225 28.003 106.733 28.987H109.972C110.341 28.167 110.505 27.429 110.505 25.502V20.992C110.505 17.753 112.022 16.728 114.687 16.728H116.942ZM116.942 3.198V13.817H114.523C112.022 13.817 110.505 12.997 110.505 9.881V7.134C110.505 4.551 111.448 3.198 113.826 3.198H116.942Z" fill="white"/>
</svg>

<svg width="121" height="33" fill="none" xmlns="http://www.w3.org/2000/svg"><path d="M15.17 5.904v23.083h3.034V.287h-4.469L9.184 23.206 4.469.287H0v28.7h2.788V6.109l4.756 22.837h3.075L15.17 5.904zm9.53 7.093V3.198h8.61V.287H21.502v28.7H33.31v-2.911H24.7V15.867h7.01v-2.87H24.7zm23.18-9.799v25.789h3.197V.287H39.392l-.779 21.73c-.082 2.747-.533 4.1-3.198 4.1v2.911h.533c4.387-.041 5.617-2.624 5.781-7.175l.656-18.655h5.494zm6.368 18.86c0 4.346 2.173 7.216 6.56 7.216 4.428 0 6.601-2.87 6.601-7.216V7.216C67.41 2.829 65.236 0 60.81 0c-4.388 0-6.56 2.829-6.56 7.216v14.842zm3.157-15.006c0-2.583 1.107-4.141 3.403-4.141 2.337 0 3.403 1.558 3.403 4.141v15.17c0 2.624-1.066 4.141-3.403 4.141-2.296 0-3.403-1.517-3.403-4.141V7.052zM87.69 32.923v-6.765h-2.172V.287H73.997L72.89 21.976c-.082 1.763-.287 3.075-1.271 4.182h-1.845v6.765h3.075v-3.936h11.726v3.936h3.116zM76.95 3.198h5.33v22.96h-7.585c.902-.943 1.189-2.173 1.312-4.223l.943-18.737zm24.199 2.952v22.837h2.87V.287h-3.567L95.86 13.776l-2.542 7.913V.287H90.49v28.7h3.321l4.223-13.243 3.116-9.594zm15.793 10.578v12.259h3.198V.287h-6.396c-4.51 0-6.396 2.296-6.396 6.56v2.337c0 3.157 1.107 5.125 3.526 5.904-2.583.779-3.567 2.911-3.567 5.986v4.469c0 1.271-.082 2.46-.574 3.444h3.239c.369-.82.533-1.558.533-3.485v-4.51c0-3.239 1.517-4.264 4.182-4.264h2.255zm0-13.53v10.619h-2.419c-2.501 0-4.018-.82-4.018-3.936V7.134c0-2.583.943-3.936 3.321-3.936h3.116z" fill="#fff"/></svg>
